src/resources/messages.svg

<?xml version="1.0" encoding="UTF-8"?>
<svg width="100px" height="87px" viewBox="0 0 100 87" version="1.1" xmlns="http://www.w3.org/2000/svg" xmlns:xlink="http://www.w3.org/1999/xlink">
    <!-- Generator: sketchtool 58 (101010) - https://sketch.com -->
    <title>73F88AD3-2AEC-4363-B4CA-300A4C4592C8</title>
    <desc>Created with sketchtool.</desc>
    <defs>
        <filter x="-19.3%" y="-21.2%" width="138.6%" height="142.4%" filterUnits="objectBoundingBox" id="filter-1">
            <feOffset dx="0" dy="4" in="SourceAlpha" result="shadowOffsetOuter1"></feOffset>
            <feGaussianBlur stdDeviation="8" in="shadowOffsetOuter1" result="shadowBlurOuter1"></feGaussianBlur>
            <feColorMatrix values="0 0 0 0 0   0 0 0 0 0   0 0 0 0 0  0 0 0 0.24 0" type="matrix" in="shadowBlurOuter1" result="shadowMatrixOuter1"></feColorMatrix>
            <feMerge>
                <feMergeNode in="shadowMatrixOuter1"></feMergeNode>
                <feMergeNode in="SourceGraphic"></feMergeNode>
            </feMerge>
        </filter>
    </defs>
    <g id="Page-1" stroke="none" stroke-width="1" fill="none" fill-rule="evenodd">
        <g id="Desktop-HD" transform="translate(-703.000000, -720.000000)" fill="#FFFFFF" fill-rule="nonzero">
            <g id="Tabs" transform="translate(80.000000, 110.000000)">
                <g id="Tabs-content" transform="translate(0.000000, 64.000000)">
                    <g id="Option" filter="url(#filter-1)" transform="translate(572.000000, 512.000000)">
                        <path d="M132.694271,63.7167348 L126.871915,63.7167348 L126.871915,63.7139761 L126.871915,48.3670132 C126.871915,47.0179812 125.758757,46 124.409725,46 L69.424947,46 C68.0759151,46 67,47.0179812 67,48.3670132 L67,72.5819991 C67,73.9310311 68.0759151,75.0179812 69.424947,75.0179812 L75.2473028,75.0179812 L75.2473028,90.3732204 C75.2473028,91.7222523 76.3604611,92.8892064 77.7094931,92.8892064 L104.392187,92.8892064 L112.279472,101.246859 C112.751219,101.747574 113.399527,102 114.061629,102 C114.363712,102 114.658899,101.935169 114.951328,101.819301 C115.882408,101.449628 116.485196,100.540618 116.485196,99.5378097 L116.485196,92.8892064 L132.692891,92.8892064 C134.041923,92.8892064 135.11784,91.7236317 135.11784,90.3732204 L135.11784,66.1582344 C135.119218,64.8092024 134.043303,63.7167348 132.694271,63.7167348 Z M71.8871373,70.1322233 L71.8871373,50.8871373 L121.984778,50.8871373 L121.984778,70.1322233 L96.6704271,70.1322233 C95.9959111,70.1322233 95.3600177,70.4149958 94.8993054,70.9060545 L90.5225381,75.5780088 L90.5225381,72.5833785 C90.5225381,71.2343465 89.4093798,70.1322233 88.0603478,70.1322233 L71.8871373,70.1322233 Z M130.23208,88.0020691 L114.060249,88.0020691 C112.711217,88.0020691 111.598059,89.0241884 111.598059,90.3745997 L111.598059,93.36923 L107.221292,88.7372777 C106.7592,88.246219 106.124686,88.0034484 105.45017,88.0034484 L80.1344401,88.0034484 L80.1344401,75.0207399 L80.152372,75.0207399 L85.632642,75.0207399 L85.632642,81.7479679 C85.632642,82.7507759 86.2354303,83.6515099 87.1665107,84.0198039 C87.4589389,84.1356717 87.7596433,84.1922262 88.0617272,84.1922262 C88.7238288,84.1922262 89.3693778,83.9191093 89.8411252,83.418395 L97.7256515,75.0207399 L124.408345,75.0207399 C125.757377,75.0207399 126.870535,73.9337898 126.870535,72.5847579 L126.870535,68.6066309 L130.230701,68.6066309 L130.230701,88.0020691 L130.23208,88.0020691 Z M103.567319,56.081876 C103.567319,54.2666141 105.641904,52.6541209 107.902705,52.6541209 C110.273856,52.6541209 112.609143,53.7465885 112.609143,56.359131 C112.609143,58.7675255 109.849007,59.6930883 109.255875,60.5648554 C108.811715,61.2131632 108.959308,62.1207941 107.737179,62.1207941 C106.941278,62.1207941 106.550914,61.4724863 106.550914,60.8793537 C106.550914,58.6751071 109.792453,58.1743928 109.792453,56.359131 C109.792453,55.3590817 109.126213,54.7659491 108.014434,54.7659491 C105.643283,54.7659491 106.568846,57.2115868 104.772895,57.2115868 C104.123208,57.2115868 103.567319,56.8226021 103.567319,56.081876 Z M109.328982,64.8450663 C109.328982,65.6782107 108.643431,66.3637618 107.810286,66.3637618 C106.977142,66.3637618 106.291591,65.6782107 106.291591,64.8450663 C106.291591,64.0119218 106.977142,63.3263708 107.810286,63.3263708 C108.643431,63.3263708 109.328982,64.0105424 109.328982,64.8450663 Z M102.858318,79.298192 C102.858318,80.3672102 101.992069,81.2320804 100.92443,81.2320804 C99.8554116,81.2320804 98.989162,80.3658308 98.989162,79.298192 C98.989162,78.2291739 99.8554116,77.3629243 100.92443,77.3629243 C101.992069,77.3629243 102.858318,78.2291739 102.858318,79.298192 Z M111.309769,79.298192 C111.309769,80.3672102 110.443519,81.2320804 109.374501,81.2320804 C108.305483,81.2320804 107.440613,80.3658308 107.440613,79.298192 C107.440613,78.2291739 108.306862,77.3629243 109.374501,77.3629243 C110.443519,77.3629243 111.309769,78.2291739 111.309769,79.298192 Z M119.76122,79.298192 C119.76122,80.3672102 118.89497,81.2320804 117.827331,81.2320804 C116.758313,81.2320804 115.892064,80.3658308 115.892064,79.298192 C115.892064,78.2291739 116.758313,77.3629243 117.827331,77.3629243 C118.89497,77.3629243 119.76122,78.2291739 119.76122,79.298192 Z M103.503867,66.1609932 L81.3565693,66.1609932 C80.6820533,66.1609932 80.1344401,65.61338 80.1344401,64.938864 C80.1344401,64.264348 80.6820533,63.7167348 81.3565693,63.7167348 L103.502488,63.7167348 C104.177004,63.7167348 104.724617,64.264348 104.724617,64.938864 C104.724617,65.61338 104.178383,66.1609932 103.503867,66.1609932 Z" id="Messages"></path>
                    </g>
                </g>
            </g>
        </g>
    </g>
</svg>

<svg width="100" height="87" xmlns="http://www.w3.org/2000/svg"><defs><filter x="-19.3%" y="-21.2%" width="138.6%" height="142.4%" filterUnits="objectBoundingBox" id="a"><feOffset dy="4" in="SourceAlpha" result="shadowOffsetOuter1"/><feGaussianBlur stdDeviation="8" in="shadowOffsetOuter1" result="shadowBlurOuter1"/><feColorMatrix values="0 0 0 0 0 0 0 0 0 0 0 0 0 0 0 0 0 0 0.24 0" in="shadowBlurOuter1" result="shadowMatrixOuter1"/><feMerge><feMergeNode in="shadowMatrixOuter1"/><feMergeNode in="SourceGraphic"/></feMerge></filter></defs><path d="M132.694 63.717h-5.822v-15.35c0-1.349-1.113-2.367-2.462-2.367H69.425C68.075 46 67 47.018 67 48.367v24.215a2.422 2.422 0 0 0 2.425 2.436h5.822v15.355c0 1.35 1.113 2.516 2.462 2.516h26.683l7.887 8.358c.472.5 1.12.753 1.783.753a2.4 2.4 0 0 0 .89-.18 2.449 2.449 0 0 0 1.533-2.282v-6.649h16.208c1.349 0 2.425-1.165 2.425-2.516V66.158a2.425 2.425 0 0 0-2.424-2.441zm-60.807 6.415V50.887h50.098v19.245H96.67c-.674 0-1.31.283-1.77.774l-4.377 4.672v-2.995a2.467 2.467 0 0 0-2.463-2.45H71.887zm58.345 17.87H114.06c-1.349 0-2.462 1.022-2.462 2.373v2.994l-4.377-4.632c-.462-.49-1.096-.734-1.77-.734H80.133V75.021h5.498v6.727a2.434 2.434 0 0 0 2.43 2.444c.662 0 1.307-.273 1.78-.774l7.884-8.397h26.682c1.35 0 2.463-1.087 2.463-2.436v-3.978h3.36v19.395h.001zm-26.665-31.92c0-1.815 2.075-3.428 4.336-3.428 2.37 0 4.706 1.093 4.706 3.705 0 2.409-2.76 3.334-3.353 4.206-.444.648-.297 1.556-1.519 1.556-.796 0-1.186-.649-1.186-1.242 0-2.204 3.241-2.705 3.241-4.52 0-1-.666-1.593-1.778-1.593-2.37 0-1.445 2.446-3.241 2.446-.65 0-1.206-.39-1.206-1.13zm5.762 8.763c0 .833-.686 1.519-1.519 1.519a1.526 1.526 0 0 1-1.518-1.519c0-.833.685-1.519 1.518-1.519s1.519.685 1.519 1.52zm-6.47 14.453a1.934 1.934 0 1 1-3.87 0 1.935 1.935 0 1 1 3.87 0zm8.45 0a1.934 1.934 0 1 1-3.867 0 1.934 1.934 0 0 1 3.868 0zm8.452 0a1.934 1.934 0 1 1-3.869 0 1.935 1.935 0 1 1 3.87 0zm-16.257-13.137H81.357a1.223 1.223 0 0 1 0-2.444h22.145a1.223 1.223 0 0 1 .002 2.444z" filter="url(#a)" transform="translate(-51 -34)" fill="#FFF"/></svg>
